X: 53
T:Sleep soond ida moarnin'
T:Sleep sound in the morning
R:Reel
O:Shetland
Z:3rd part played in Ottawa
Z:Added by Alf Warnock
M:4/4
L:1/8
K:ADor
ea2^g a2ef|gedB GABG|ea2^g a2ef|gedB A2:|
AB|cAeA cAeA|BcdB G2AB|cAeA cAeA|BAGB A2AB|
cAeA cAeA|BcdB G2GB|ABcd efga|gedB A2
|:AB|c2e2 c2e2|d2=f2 d2f2|ea2^g a2ef|gedB A2:|

